glitch-avatars-svg/base_avatar/Avatar.fla/placeholder symbols 3/Avatar_backArmLowerLeft3.svg

<?xml version="1.0" encoding="UTF-8" standalone="no"?>
<!-- Generator: flash2svg, http://dissentgraphics.com/tools/flash2svg -->

<svg
   xmlns:dc="http://purl.org/dc/elements/1.1/"
   xmlns:cc="http://creativecommons.org/ns#"
   xmlns:rdf="http://www.w3.org/1999/02/22-rdf-syntax-ns#"
   xmlns:svg="http://www.w3.org/2000/svg"
   xmlns="http://www.w3.org/2000/svg"
   xmlns:sodipodi="http://sodipodi.sourceforge.net/DTD/sodipodi-0.dtd"
   xmlns:inkscape="http://www.inkscape.org/namespaces/inkscape"
   id="Avatar"
   image-rendering="auto"
   version="1.1"
   x="0px"
   y="0px"
   width="11.681725"
   height="13.95"
   viewBox="0 0 11.681725 13.95"
   inkscape:version="0.48.4 r9939"
   sodipodi:docname="Avatar_backArmLowerLeft3.svg">
  <metadata
     id="metadata21">
    <rdf:RDF>
      <cc:Work
         rdf:about="">
        <dc:format>image/svg+xml</dc:format>
        <dc:type
           rdf:resource="http://purl.org/dc/dcmitype/StillImage" />
      </cc:Work>
    </rdf:RDF>
  </metadata>
  <sodipodi:namedview
     pagecolor="#ffffff"
     bordercolor="#666666"
     borderopacity="1"
     objecttolerance="10"
     gridtolerance="10"
     guidetolerance="10"
     inkscape:pageopacity="0"
     inkscape:pageshadow="2"
     inkscape:window-width="640"
     inkscape:window-height="480"
     id="namedview19"
     showgrid="false"
     fit-margin-top="0"
     fit-margin-left="0"
     fit-margin-right="0"
     fit-margin-bottom="0"
     inkscape:zoom="1.8730159"
     inkscape:cx="42.849227"
     inkscape:cy="17.255996"
     inkscape:window-x="25"
     inkscape:window-y="31"
     inkscape:window-maximized="0"
     inkscape:current-layer="Avatar" />
  <defs
     id="defs3">
    <radialGradient
       gradientUnits="userSpaceOnUse"
       color-interpolation="sRGB"
       r="10.537064"
       cx="-1.749"
       cy="-7.3990002"
       fx="-1.749"
       fy="-7.3990002"
       gradientTransform="matrix(0.60281372,0.79905701,0.79905701,-0.60281372,5.15,-10.449)"
       id="radialGradient">
      <stop
         stop-color="#FFF"
         stop-opacity="1"
         offset="0"
         id="stop6" />
      <stop
         stop-color="#FFF"
         stop-opacity="0.40784313725490196"
         offset="1"
         id="stop8" />
    </radialGradient>
    <radialGradient
       gradientUnits="userSpaceOnUse"
       color-interpolation="sRGB"
       r="10.547"
       cx="3.3989999"
       cy="-17.805"
       fx="3.3989999"
       fy="-17.805"
       gradientTransform="matrix(0.602,0.798,0.798,-0.602,10.35,-20.699)"
       id="radialGradient1">
      <stop
         stop-color="#FFF"
         stop-opacity="1"
         offset="0"
         id="stop11" />
      <stop
         stop-color="#FFF"
         stop-opacity="0.40784313725490196"
         offset="1"
         id="stop13" />
    </radialGradient>
  </defs>
  <g
     id="backArmLowerLeft4"
     overflow="visible"
     style="overflow:visible"
     transform="translate(8.8492273,11.5)">
    <g
       id="backArmLowerLeft3_0">
      <g
         id="element">
        <path
           id="path"
           d="m 2.05,-3.95 c -1.25,-2.05 -2.3,-1.9 -3.9,-5 -1,-1.95 -2.1,-2.55 -3.1,-2.55 -0.65,0 -1.3,0.25 -1.9,0.55 l -0.1,0 0,0.05 c -0.6,0.35 -1.2,0.8 -1.55,1.5 l -0.05,0 0,0.1 C -9,-8.4 -9,-7.15 -8.15,-5.6 l 1.35,2.05 0,0.3 0.15,0 c 0.65,0.9 1.25,1.7 1.85,2.35 1,1.15 1.9,1.95 2.6,2.55 l 0.7,0.45 c 0.15,0.2 0.4,0.35 0.6,0.35 l 0.1,0 0,-0.15 0.15,0 C 0,2.3 0.6,2 1.25,1.95 2.8,1.85 3.2,-0.85 2.5,-2.9 L 2.55,-3 2.5,-3 C 2.4,-3.35 2.25,-3.7 2.05,-3.95 z M 1.8,-3.8 c 0.15,0.2 0.25,0.5 0.35,0.75 -0.2,0 -0.45,0 -0.8,0.05 l -0.95,-1.7 0.75,0 0.65,0.9 z m -1.6,-1.15 -0.6,-0.7 c -0.3,-0.3 -0.7,-0.75 -1.1,-1.3 l 0.65,0.15 1.7,1.8 -0.65,0.05 z m 1.25,4.7 0,0.1 c -0.8,-0.1 -1.65,-0.6 -2.35,-1.1 l 0.2,-0.25 c 0.65,-0.7 1.3,-1 1.9,-1.15 0.25,0.55 0.4,1.05 0.4,1.5 l 0,0.95 -0.15,-0.05 z m 0.45,-0.9 c 0,-0.45 -0.15,-1 -0.4,-1.55 0.35,-0.05 0.6,-0.05 0.75,0 0.15,0.4 0.25,0.9 0.3,1.35 -0.05,0.5 -0.4,0.9 -0.65,1.1 l 0,-0.9 z M 1.05,-2.9 c -0.6,0.15 -1.3,0.45 -2,1.2 l -0.15,0.25 c -0.45,-0.4 -0.85,-0.8 -1,-1.15 l -0.45,-0.8 -0.1,-0.25 c 0.95,-0.6 1.95,-0.9 2.7,-1 0.3,0.45 0.7,1.1 1,1.75 z M 0.3,1.85 C 0,1.9 -0.3,2 -0.65,2 L -1.3,1.9 -1.4,1.75 -1.6,0.85 -1.4,0.95 C -1.05,1.1 -0.75,1.2 -0.4,1.2 0.4,1.2 1.1,0.8 1.5,0.5 1.35,0.85 1,1.4 0.25,1.7 L 0.3,1.85 z M 2.3,0.65 2.2,0.9 C 1.95,1.35 1.65,1.6 1.25,1.65 L 0.9,1.7 C 1.55,1.25 1.8,0.65 1.85,0.3 L 2.3,0.65 z M 2.05,0.05 2.55,-0.55 2.4,0.35 2.05,0.05 z m -7,-11.25 c 0,0 0.75,0.25 1.45,1.5 -0.85,-0.1 -1.75,0.1 -2.5,0.45 l -0.6,-1.5 c 0.65,-0.3 1.15,-0.45 1.65,-0.45 z m 0.75,0.15 c 0.65,0.25 1.2,0.75 1.7,1.6 l -0.6,-0.2 c -0.35,-0.7 -0.75,-1.15 -1.1,-1.4 z M -5,-6.3 c -0.6,0.35 -1,0.8 -1.3,1.2 L -6.6,-5.5 C -7,-6 -7.3,-6.6 -7.55,-7.1 c 0.15,-0.5 0.35,-1 0.8,-1.35 l 0.6,-0.4 c 0.3,0.6 0.65,1.25 1.05,1.7 l 0.5,0.65 -0.4,0.2 z m 0.1,-1.05 C -5.25,-7.8 -5.6,-8.4 -5.9,-9 c 0.8,-0.35 1.7,-0.55 2.6,-0.4 l 0.15,0.35 c 0.3,0.65 0.65,1.25 1.05,1.75 -0.65,0.05 -1.35,0.2 -2.25,0.65 l -0.55,-0.7 z m 3.15,0.1 c -0.4,-0.55 -0.8,-1.2 -1.1,-1.9 l -0.1,-0.15 0.7,0.25 1.1,1.9 -0.6,-0.1 z M -1.9,-7 c 0.45,0.65 0.95,1.2 1.3,1.55 l 0.35,0.35 0.1,0.2 c -0.75,0.1 -1.7,0.4 -2.65,1 -0.4,-0.8 -0.85,-1.7 -1.4,-2.5 0.95,-0.45 1.65,-0.6 2.3,-0.6 z m -6.3,-2.25 c 0.35,-0.65 0.9,-1.1 1.35,-1.35 l 0.6,1.5 -0.65,0.4 c -0.4,0.3 -0.65,0.75 -0.85,1.15 C -8,-8.3 -8.15,-8.9 -8.2,-9.25 z m 0.3,2.15 C -8,-6.7 -8,-6.3 -8,-6.1 -8.5,-7.05 -8.65,-7.95 -8.45,-8.75 l 0.55,1.65 z m 1.45,2.25 c -0.2,0.35 -0.25,0.6 -0.3,0.85 -0.4,-0.55 -0.75,-1.1 -1.1,-1.75 l 0.15,0 c 0,-0.05 -0.05,-0.4 0.05,-0.85 0.2,0.4 0.45,0.85 0.8,1.25 l 0.4,0.5 z m 0.2,0.3 1.75,2.3 c -0.2,0.35 -0.3,0.65 -0.3,0.85 -0.55,-0.65 -1.15,-1.35 -1.7,-2.2 0,-0.25 0.05,-0.6 0.25,-0.95 z m 3.35,1.05 0.55,1.05 c 0.2,0.4 0.55,0.8 1.05,1.25 -0.3,0.45 -0.5,1 -0.55,1.45 -0.7,-0.55 -1.5,-1.5 -2.3,-2.55 0.2,-0.3 0.55,-0.7 1.1,-1.1 l 0.15,-0.1 z m -0.35,-0.15 c -0.5,0.4 -0.85,0.8 -1.1,1.1 l -1.75,-2.3 c 0.25,-0.4 0.65,-0.8 1.25,-1.2 l 0.4,-0.2 c 0.5,0.75 1,1.7 1.4,2.5 l -0.2,0.1 z M -4.3,-2 c 0.85,1.05 1.7,2.05 2.4,2.65 0,0.35 0.05,0.65 0.15,0.95 L -2,1.45 C -2.75,0.8 -3.6,0 -4.55,-1.05 c 0,-0.15 0,-0.5 0.25,-0.95 z m 2.75,2.5 c 0,-0.5 0.15,-1 0.5,-1.55 0.7,0.6 1.6,1.1 2.45,1.25 -0.5,0.35 -1.6,1 -2.65,0.5 l -0.3,-0.2 z"
           inkscape:connector-curvature="0"
           style="fill:url(#radialGradient1)" />
      </g>
    </g>
  </g>
</svg>

<?xml version="1.0" encoding="utf-8"?>
<!-- Generator: flash2svg, http://dissentgraphics.com/tools/flash2svg -->
<svg xmlns:xlink="http://www.w3.org/1999/xlink" id="Avatar" image-rendering="auto" baseProfile="basic" version="1.1" x="0px" y="0px" width="68" height="126" xmlns="http://www.w3.org/2000/svg" viewBox="0 0 68 126">
  <defs>
    <radialGradient gradientUnits="userSpaceOnUse" color-interpolation="sRGB" r="10.537063614385412" cx="-1.749" cy="-7.399" fx="-1.7490000000000006" fy="-7.399" gradientTransform="matrix(0.602813720703125 0.7990570068359375 0.7990570068359375 -0.602813720703125 5.15 -10.449)" id="radialGradient">
      <stop stop-color="#FFF" stop-opacity="1" offset="0"/>
      <stop stop-color="#FFF" stop-opacity="0.40784313725490196" offset="1"/>
    </radialGradient>
    <radialGradient gradientUnits="userSpaceOnUse" color-interpolation="sRGB" r="10.547" cx="3.399" cy="-17.805" fx="3.399" fy="-17.805" gradientTransform="matrix(0.602 0.798 0.798 -0.602 10.35 -20.699)" id="radialGradient1">
      <stop stop-color="#FFF" stop-opacity="1" offset="0"/>
      <stop stop-color="#FFF" stop-opacity="0.40784313725490196" offset="1"/>
    </radialGradient>
  </defs>
  <g id="backArmLowerLeft4" overflow="visible">
    <g id="backArmLowerLeft3_0">
      <g id="element">
        <path id="path" fill="url(#radialGradient1)" d="M2.05,-3.95 C0.8,-6 -0.25,-5.85 -1.85,-8.95 -2.85,-10.9 -3.95,-11.5 -4.95,-11.5 -5.6,-11.5 -6.25,-11.25 -6.85,-10.95 L-6.95,-10.95 -6.95,-10.9 C-7.55,-10.55 -8.15,-10.1 -8.5,-9.4 L-8.55,-9.4 -8.55,-9.3 C-9,-8.4 -9,-7.15 -8.15,-5.6 L-6.8,-3.55 -6.8,-3.25 -6.65,-3.25 C-6,-2.35 -5.4,-1.55 -4.8,-0.9 -3.8,0.25 -2.9,1.05 -2.2,1.65 L-1.5,2.1 C-1.35,2.3 -1.1,2.45 -0.9,2.45 L-0.8,2.45 -0.8,2.3 -0.65,2.3 C0,2.3 0.6,2 1.25,1.95 2.8,1.85 3.2,-0.85 2.5,-2.9 L2.55,-3 2.5,-3 C2.4,-3.35 2.25,-3.7 2.05,-3.95z M1.8,-3.8 C1.95,-3.6 2.05,-3.3 2.15,-3.05 1.95,-3.05 1.7,-3.05 1.35,-3 L0.4,-4.7 1.15,-4.7 1.8,-3.8z M0.2,-4.95 L-0.4,-5.65 C-0.7,-5.95 -1.1,-6.4 -1.5,-6.95 L-0.85,-6.8 0.85,-5 0.2,-4.95z M1.45,-0.25 L1.45,-0.15 C0.65,-0.25 -0.2,-0.75 -0.9,-1.25 L-0.7,-1.5 C-0.05,-2.2 0.6,-2.5 1.2,-2.65 1.45,-2.1 1.6,-1.6 1.6,-1.15 L1.6,-0.2 1.45,-0.25z M1.9,-1.15 C1.9,-1.6 1.75,-2.15 1.5,-2.7 1.85,-2.75 2.1,-2.75 2.25,-2.7 2.4,-2.3 2.5,-1.8 2.55,-1.35 2.5,-0.85 2.15,-0.45 1.9,-0.25 L1.9,-1.15z M1.05,-2.9 C0.45,-2.75 -0.25,-2.45 -0.95,-1.7 L-1.1,-1.45 C-1.55,-1.85 -1.95,-2.25 -2.1,-2.6 L-2.55,-3.4 -2.65,-3.65 C-1.7,-4.25 -0.7,-4.55 0.05,-4.65 0.35,-4.2 0.75,-3.55 1.05,-2.9z M0.3,1.85 C0,1.9 -0.3,2 -0.65,2 L-1.3,1.9 -1.4,1.75 -1.6,0.85 -1.4,0.95 C-1.05,1.1 -0.75,1.2 -0.4,1.2 0.4,1.2 1.1,0.8 1.5,0.5 1.35,0.85 1,1.4 0.25,1.7 L0.3,1.85z M2.3,0.65 L2.2,0.9 C1.95,1.35 1.65,1.6 1.25,1.65 L0.9,1.7 C1.55,1.25 1.8,0.65 1.85,0.3 L2.3,0.65z M2.05,0.05 L2.55,-0.55 2.4,0.35 2.05,0.05z M-4.95,-11.2 C-4.95,-11.2 -4.2,-10.95 -3.5,-9.7 -4.35,-9.8 -5.25,-9.6 -6,-9.25 L-6.6,-10.75 C-5.95,-11.05 -5.45,-11.2 -4.95,-11.2z M-4.2,-11.05 C-3.55,-10.8 -3,-10.3 -2.5,-9.45 L-3.1,-9.65 C-3.45,-10.35 -3.85,-10.8 -4.2,-11.05z M-5,-6.3 C-5.6,-5.95 -6,-5.5 -6.3,-5.1 L-6.6,-5.5 C-7,-6 -7.3,-6.6 -7.55,-7.1 -7.4,-7.6 -7.2,-8.1 -6.75,-8.45 L-6.15,-8.85 C-5.85,-8.25 -5.5,-7.6 -5.1,-7.15 L-4.6,-6.5 -5,-6.3z M-4.9,-7.35 C-5.25,-7.8 -5.6,-8.4 -5.9,-9 -5.1,-9.35 -4.2,-9.55 -3.3,-9.4 L-3.15,-9.05 C-2.85,-8.4 -2.5,-7.8 -2.1,-7.3 -2.75,-7.25 -3.45,-7.1 -4.35,-6.65 L-4.9,-7.35z M-1.75,-7.25 C-2.15,-7.8 -2.55,-8.45 -2.85,-9.15 L-2.95,-9.3 -2.25,-9.05 -1.15,-7.15 -1.75,-7.25z M-1.9,-7 C-1.45,-6.35 -0.95,-5.8 -0.6,-5.45 L-0.25,-5.1 -0.15,-4.9 C-0.9,-4.8 -1.85,-4.5 -2.8,-3.9 -3.2,-4.7 -3.65,-5.6 -4.2,-6.4 -3.25,-6.85 -2.55,-7 -1.9,-7z M-8.2,-9.25 C-7.85,-9.9 -7.3,-10.35 -6.85,-10.6 L-6.25,-9.1 -6.9,-8.7 C-7.3,-8.4 -7.55,-7.95 -7.75,-7.55 -8,-8.3 -8.15,-8.9 -8.2,-9.25z M-7.9,-7.1 C-8,-6.7 -8,-6.3 -8,-6.1 -8.5,-7.05 -8.65,-7.95 -8.45,-8.75 L-7.9,-7.1z M-6.45,-4.85 C-6.65,-4.5 -6.7,-4.25 -6.75,-4 -7.15,-4.55 -7.5,-5.1 -7.85,-5.75 L-7.7,-5.75 C-7.7,-5.8 -7.75,-6.15 -7.65,-6.6 -7.45,-6.2 -7.2,-5.75 -6.85,-5.35 L-6.45,-4.85z M-6.25,-4.55 L-4.5,-2.25 C-4.7,-1.9 -4.8,-1.6 -4.8,-1.4 -5.35,-2.05 -5.95,-2.75 -6.5,-3.6 -6.5,-3.85 -6.45,-4.2 -6.25,-4.55z M-2.9,-3.5 L-2.35,-2.45 C-2.15,-2.05 -1.8,-1.65 -1.3,-1.2 -1.6,-0.75 -1.8,-0.2 -1.85,0.25 -2.55,-0.3 -3.35,-1.25 -4.15,-2.3 -3.95,-2.6 -3.6,-3 -3.05,-3.4 L-2.9,-3.5z M-3.25,-3.65 C-3.75,-3.25 -4.1,-2.85 -4.35,-2.55 L-6.1,-4.85 C-5.85,-5.25 -5.45,-5.65 -4.85,-6.05 L-4.45,-6.25 C-3.95,-5.5 -3.45,-4.55 -3.05,-3.75 L-3.25,-3.65z M-4.3,-2 C-3.45,-0.95 -2.6,0.05 -1.9,0.65 -1.9,1 -1.85,1.3 -1.75,1.6 L-2,1.45 C-2.75,0.8 -3.6,0 -4.55,-1.05 -4.55,-1.2 -4.55,-1.55 -4.3,-2z M-1.55,0.5 C-1.55,0 -1.4,-0.5 -1.05,-1.05 -0.35,-0.45 0.55,0.05 1.4,0.2 0.9,0.55 -0.2,1.2 -1.25,0.7 L-1.55,0.5z"/>
      </g>
    </g>
  </g>
</svg>
